X:1
T:Ben e ver
T:Ben e ver
T:Giovanni Ghizzolo
C:Giovanni Ghizzolo
%%score [ 1 2 ] { 3 | 4 }
L:1/8
Q:1/4=120
M:6/2
K:C
V:1 treble nm="Soprano" snm="S"
V:2 bass nm="Bass" snm="B"
V:3 treble nm="MusicXML Part"
V:4 bass 
V:1
"^Source: Madrigali et Arie---Libro secuondo---Venetia---A.Raverij---16O9.\nEditor: André Vierendeels (0/12/09)\nContinuo: André Vierendeels" z8 B2 B2 c8 A4 | %1
w: Ben e var ch'ei|
w: O qual i- ra'o|
w: Non sai tu che|
 B8 G4 A4 A4"^ARIA" c2 d2 | e4 e4 c2 B2 c8 d4 | B8- B2 A2 A8 A4 :: z8 B2 c2 d6 d2 c2 B2 | %5
w: par- go- leg- gia ch'ei vez-|zeg- gia gra- ti- o- so|fan- * ciu- let- to.|Ma co- si par- go- leg-|
w: qua- le sdeg- no mi fa|seg- no ch'io non di- ca'e-|mi _ mi- na- cia.|Vi pa- ret- ta ser- pen-|
w: tan- ti'af- fan- ni per tan-|t'an- ni ho sof- fer- toin|se- * gui- tar- ti.|A che dun- que la- cri-|
 A4 A4 c2 d2 e4 e4 c2 B2 | c8 d4 B8- B2 A2 | A12 A12 :| %8
w: gian- do vez- ze- gian do non si|las- sa cor _ in|pet- to.|
w: tel- lo dra- gon- cel- lo qual ra-|gion vol ch'io _ mi|ta- cia.|
w: mo- so do- lo- ro- so an- go-|scio- so'ho da _ lo-|dar- ti.|
V:2
 z8 G,2 G,2 A,8 F,4 | G,8 E,4 D,4 D,4 C,2 B,,2 | A,,4 A,,4 A,2 ^G,2 A,8 F,4 | E,8 E,4 A,,8 A,,4 :: %4
w: Ben e ver ch'ei|par- go- le- gia ch'ei vez-|zeg- gia gra- ti- o- *|fan- ciu- let- to.|
w: O qual i- ra'o|qua- le sdeg- no mi fa|seg- gio chi non di- *|mi mi- na- cia.|
w: Non sai tu che|fan- ti'af- fan- ni per tan-|t'an- ni ho sof- fer- *|se- gui- tar- ti.|
 z8 G,,2 A,,2 B,,6 B,,2 C,2 C,2 | D,4 D,4 C,2 B,,2 A,,4 A,,4 A,2 ^G,2 | A,8 F,4 E,8 E,4 | %7
w: Ma co- si par- go- leg-|gian- do vez- zeg- gian- do non si|las- sa cor in-|
w: Vi pa- ret- ta ser- pen|tel- lo dra- gon- cel- lo qual ra-|gion vo ch'io mi|
w: A che dun- que la- cri-|mo- so do- lo- ro- so an- go-|scio- so'ho da lo-|
 A,,12 A,,12 :| %8
w: pet- to.|
w: ta- cia.|
w: dar- ti.|
V:3
 [GBd]12 [Fcf]12 | [GBd]8 [Gc]4 [FA]12 | [E-Ac-]12 [EAc]8 [DAd]4 | [E^GB]12 [EA^c]12 :: %4
 [GBd]12 [GB]8 [Gc]4 | [DFA]12 [EA]8 [E^GB]4 | [EA^c]8 [FAd]4 [E^GB]12 | [EA^c]12 [EAc]12 :| %8
V:4
 z8 G,2 G,2 A,8 F,4 | G,8 E,4 D,4 D,4 C,2 B,,2 | A,,4 A,,4 A,2 ^G,2 A,8 F,4 | E,8 E,4 A,,8 A,,4 :: %4
 z8 G,,2 A,,2 B,,6 B,,2 C,2 C,2 | %5
"^Note: original keys: Ut 1st, Fa 4rth" D,4 D,4 C,2 B,,2 A,,4 A,,4 A,2 ^G,2 | A,8 F,4 E,8 E,4 | %7
 A,,12 A,,12 :| %8

